X:1
T:Title
%%score 1 { ( 2 6 ) | ( 3 4 5 ) }
L:1/8
Q:1/4=120
M:2/4
K:C
V:1 treble nm="MusicXML Part"
V:2 treble nm="MusicXML Part"
V:6 treble 
V:3 bass 
V:4 bass 
V:5 bass 
V:1
"^Wiegenlied""^Nr. 11 aus: Volks-Kinderlieder, WoO 31""^Con moto" e2 d/c/ d/e/ x4 | c2 z c x4 | %2
w: Schlaf, Kind * lein *|schlaf! Der|
w: Schlaf, Kind * lein *|schlaf! Am|
w: Schlaf, Kind * lein *|schlaf! So|
w: Schlaf, Kind * lein *|schlaf! Und|
w: Schlaf, Kind * lein *|schlaf! Geh|
 ee d/c/ d/e/ |"^Johannes Brahms (1833-1897)" c2 z G | cc dd x4 | e>d cG | dd ee x4 | f>e d z x4 | %8
w: Va- ter hüt' * die *|Schaf', die|Mut- ter schüt- telt|'sBäu- me- lein, da|fällt her- ab ein|Träu- me- lein.|
w: Him- mel zieh'n * die *|Schaf', die|Stern- lein sind die|Läm- me- lein, der|Mond, der ist das|Schä- fer- lein.|
w: schenk' ich dir * ein *|Schaf', mit|ei- ner gold- nen|Schel- le fein, das|soll dein Spiel- ge-|sel- le sein.|
w: blök nicht wie * ein *|Schaf', sonst|kömmt des Schä- fers|Hün- de- lein und|beißt mein bö- ses|Kin- de- lein.|
w: fort und hüt' * die *|Schaf', geh'|fort, du schwar- zes|Hün- de- lein und|weck' mir nicht mein|Kin- de- lein!|
 g2 ed x4 | c2 z2 x4 | z4 x4 | z4 :| z4 |] %13
w: Schlaf, Kind- lein|schlaf!||||
w: Schlaf, Kind- lein|schlaf!||||
w: Schlaf, Kind- lein|schlaf!||||
w: Schlaf, Kind- lein|schlaf!||||
w: Schlaf, Kind- lein|schlaf!||||
V:2
!p! E2 D/C/D/E/ x4 |[I:staff +1] [E,C]>G, E,/G,/[I:staff -1]C/E/- x4 | E2 F/E/F/G/ | %3
 E>C G,/!<(!C/E/G/!<)! |!>(! c/G/E/C/!>)!!>(! G/F/D/B,/!>)! x4 | %5
!>(! E/C/[I:staff +1]G,/F,/!>)! E,/G,/[I:staff -1]C/E/ |!>(! d/B/G/F/!>)!!>(! c/G/E/C/!>)! x4 | %7
!>(! G/F/D/C/!>)! B,/G,/D/G,/ x4 | ([EG]2 [CE][G,D]) x4 | ([EG]2 [CE][G,D]) x4 | %10
 ([EG]2 [CE][Ec]) x4 | (BGFD) :| C2 z2 |] %13
V:3
 x4 C,,2 C,,2 | x4"^." C,,2 C,,2 | C,,2 C,,2 | C,,2 C,,2 | x8 | x4 | x8 | x8 | %8
 x4 C,,/G,,/C,/G,,/ C,,/G,,/B,,/G,,/ | %9
 x4"^© 2009 by CPDL.\nThis edition can be fully distributed, duplicated, performed, and recorded.\nEdited by Juliane Claudi." C,,/G,,/C,/G,,/ C,,/G,,/B,,/G,,/ | %10
 x4 C,,/G,,/C,/G,,/ C,,/G,,/C,/G,,/ | C,,/G,,/B,,/G,,/ C,,/G,,/B,,/G,,/ :| %12
"^Version 1.1 (2009/10/14)" C,,/G,,/C,/G,,/ C,, z |] %13
V:4
 x4 G,2 F,2 | x4 x>x x2 | x4 | x4 | x4 C,,2 C,,2 | C,,2 C,,2 | x4 C,,2 C,,2 | x4 C,,2 C,,2 | %8
 x4 C,,2 C,,2 | x4 C,,2 C,,2 | x4 C,,2 C,,2 | C,,2 C,,2 :| C,,2 x2 |] %13
V:5
 x4 C,,/G,,/C,/G,,/ C,,/G,,/B,,/G,,/ | x4 C,,/G,,/C,/G,,/ C,,/G,,/C,/G,,/ | %2
 C,,/G,,/C,/G,,/ C,,/G,,/B,,/G,,/ | C,,/G,,/C,/G,,/ C,,/G,,/C,/G,,/ | %4
 x4 C,,/G,,/C,/G,,/ C,,/G,,/B,,/G,,/ | C,,/G,,/C,/G,,/ C,,/G,,/C,/G,,/ | %6
 x4 C,,/G,,/B,,/G,,/ C,,/G,,/C,/G,,/ | x4 C,,/G,,/C,/G,,/ C,,/G,,/B,,/G,,/ | x8 | x8 | x8 | x4 :| %12
 x4 |] %13
V:6
 x8 | x8 | G2 G,2 | G,2 x2 | x8 | x4 | x8 | x8 | x8 | x8 | x8 | D3 G, :| E,2 x2 |] %13

